X: 14057
T: MIA'S REEL
C: Bob McQuillen Dec.'09
B: Bob's Note Book 14 #57
%R: reel
%D:2009
Z: 2020 John Chambers <jc:trillian.mit.edu>
M: C
L: 1/8
K: D
dB \
| AFED FABd | A2df edBd | A2FA dBAF | BAFD E2DE |
| FDFA BAdB | ABdf edBd | f2af efdB | ABde d2 :|
|: de \
| f2af edBA | B2Bd BAFA | d2de fdBA | dBAF E2FA |
| B2Bd BAde | fafd efdB | A2AB dfaf | edef d2 :|
%%begintext align
%% Not long ago, I was
%% very happy to find out that my second cousin,
%% Mia Meade, had moved up to Peterborough from
%% Massachusetts. It sure is nice to have her here
%% in town. She's a real sweet heart!
%%endtext

%%sep 1 1 500

%%sep 1 1 500

